X: 504
T: Cuckoo's Nest, The
C:Traditional, Arr Norman Blake
B: jims roots
M:4/4
L:1/8
Q: 1/4=100
K:D
V:1 
x (3ABc |: "D"d2 dc dfed | "A"c2 A2 A2 AB | "C"=c2 cB cedc | "G"BGAF G2 DG |
"D"AFDF AFAd | fdAF "G"G2 FG | "D"AFAc dBAG| [1 "G"(3FGF D2 "D"D2 Ac:| [2 "G"(3FGF D2 "D"D2 FG ||
|: "D"AFDF AFDF | AFAd fdAF | "C"GE=cE GEcE | GE=cA G2 DF |
"D"AFDF AFDF | fdAF "G"G2 FG | "D"AFAc dBAG| [1 "G"(3FGF D2 "D"D2 FG:| [2 "G"(3FGF D2 "D"D4||
% abcbook-tune_id 6298c2452e3ca53ffa61016a


% abcbook-boost 0
% abcbook-tablature 
% abcbook-transpose 
% abcbook-lastupdated 1654178373887
% abcbook-soundfonts 
% abcbook-repeats 1


